X:55
T:Polka des b?b?s ou badina
R:---
C:Bresse
I:abc2nwc
Z:Transcrit et/ou corrig? par Michel BELLON - 2005-09-10
Z:Pour toute observation mailto:galouvielle@free.fr
M:2/4
L:1/16
K:G
D2||G3A B2c2|d3e d2B2|c3d c2A2|[G2B2] z2z2D2|G3A B2c2|d3e d2B2|c3d c2A2|[GB] zd2 e3d|B3G G2F2|F zd2 e3d|c3A A2G2|G zd2 g2g2|g3d f2f2|f3d fedc|B2A2 B2B2|B zd2 e3d|B3G G2F2|F zd2 e3d|c3A A2G2|G zd2 g2g2|g3d f2f2|f3d fedc|B2A2[G2B2][G2B2] |[G2B2] z2z2z2|]
w:Je t'ai ben vu Mar-gol~! Cli-gnant de l'oe pou-rihe au-to Moai, je t'ai vu toi-not~! Re-lu-quant la voi-sine ai-to Te vout m'lais-si, bra-va Mar-got~! Je t'ai sur-pris, lor-gnant Jean-not~! Bein, faes l'dan-si, Ma ch?re A-mie Moai je m'en vas chan-gi de com-pa-gnie que tes donc niais, Mon grous Toi-not~! Je le con-nais il est d'ves-nos Mais, c'que t'as dit mon cher A-mi faet que, drait voir, av'
<end>
<start>
